svg/map/earth_3_line.svg

<svg xmlns="http://www.w3.org/2000/svg" width="24" height="24" viewBox="0 0 24 24"><g fill="none" fill-rule="evenodd"><path d="M24,0 L24,24 L0,24 L0,0 L24,0 Z M12.5935,23.2578 L12.5819,23.2595 L12.5109,23.295 L12.4919,23.2987 L12.4767,23.295 L12.4057,23.2595 C12.3958,23.2564 12.387,23.259 12.3821,23.2649 L12.378,23.2758 L12.3609,23.7031 L12.3659,23.7235 L12.3769,23.7357 L12.4805,23.8097 L12.4953,23.8136 L12.5071,23.8097 L12.6107,23.7357 L12.6233,23.7197 L12.6267,23.7031 L12.6096,23.2758 C12.6076,23.2657 12.601,23.2593 12.5935,23.2578 Z M12.8584,23.1453 L12.8445,23.1473 L12.6598,23.2397 L12.6499,23.2499 L12.6472,23.2611 L12.6651,23.6906 L12.6699,23.7034 L12.6784,23.7105 L12.8793,23.8032 C12.8914,23.8069 12.9022,23.803 12.9078,23.7952 L12.9118,23.7812 L12.8777,23.1665 C12.8753,23.1546 12.8674,23.147 12.8584,23.1453 Z M12.143,23.1473 C12.1332,23.1424 12.1222,23.1453 12.1156,23.1526 L12.1099,23.1665 L12.0758,23.7812 C12.0751,23.7927 12.0828,23.8019 12.0926,23.8046 L12.1083,23.8032 L12.3092,23.7105 L12.3186,23.7024 L12.3225,23.6906 L12.3404,23.2611 L12.3372,23.2485 L12.3278,23.2397 L12.143,23.1473 Z"/><path fill="#09244B" d="M9.9859,4.25543 C9.73514,5.08985 9.52269,6.04575 9.35995,7.09441 C10.2135,7.03239 11.0968,7 12,7 C12.9032,7 13.7865,7.03239 14.64,7.09441 C14.4773,6.04575 14.2649,5.08984 14.0141,4.25542 C13.3715,4.08884 12.6968,4 12,4 C11.3032,4 10.6285,4.08884 9.9859,4.25543 Z M16.3378,5.27687 C16.4763,5.91878 16.5951,6.5981 16.6923,7.3077 C17.4019,7.40486 18.0812,7.52368 18.7231,7.66219 C18.1062,6.70827 17.2917,5.89376 16.3378,5.27687 Z M19.7446,9.9859 C18.9102,9.73514 17.9542,9.52269 16.9056,9.35995 C16.9676,10.2135 17,11.0968 17,12 C17,12.9032 16.9676,13.7865 16.9056,14.64 C17.9542,14.4773 18.9102,14.2649 19.7446,14.0141 C19.9112,13.3715 20,12.6968 20,12 C20,11.3032 19.9112,10.6285 19.7446,9.9859 Z M18.7231,16.3378 C18.0812,16.4763 17.4019,16.5951 16.6923,16.6923 C16.5951,17.4019 16.4763,18.0812 16.3378,18.7231 C17.2917,18.1062 18.1062,17.2917 18.7231,16.3378 Z M14.0141,19.7446 C14.2649,18.9102 14.4773,17.9542 14.64,16.9056 C13.7865,16.9676 12.9032,17 12,17 C11.0968,17 10.2135,16.9676 9.35995,16.9056 C9.52269,17.9542 9.73514,18.9102 9.9859,19.7446 C10.6285,19.9112 11.3032,20 12,20 C12.6968,20 13.3715,19.9112 14.0141,19.7446 Z M7.66219,18.7231 C7.52368,18.0812 7.40486,17.4019 7.3077,16.6923 C6.59809,16.5951 5.91878,16.4763 5.27687,16.3378 C5.89377,17.2917 6.70827,18.1062 7.66219,18.7231 Z M4.25543,14.0141 C5.08984,14.2649 6.04575,14.4773 7.09441,14.64 C7.03239,13.7865 7,12.9032 7,12 C7,11.0968 7.03239,10.2135 7.09441,9.35995 C6.04575,9.52269 5.08985,9.73514 4.25543,9.9859 C4.08884,10.6285 4,11.3032 4,12 C4,12.6968 4.08884,13.3715 4.25543,14.0141 Z M5.27687,7.66219 C5.91878,7.52368 6.59809,7.40486 7.3077,7.3077 C7.40486,6.59809 7.52368,5.91878 7.66219,5.27687 C6.70827,5.89376 5.89376,6.70827 5.27687,7.66219 Z M9.11945,9.11945 C9.04174,10.0368 9,11.0018 9,12 C9,12.9982 9.04174,13.9632 9.11945,14.8805 C10.0368,14.9583 11.0018,15 12,15 C12.9982,15 13.9632,14.9583 14.8805,14.8805 C14.9583,13.9632 15,12.9982 15,12 C15,11.0018 14.9583,10.0368 14.8805,9.11945 C13.9632,9.04174 12.9982,9 12,9 C11.0018,9 10.0368,9.04174 9.11945,9.11945 Z M8.88329,2.49554 C9.86536,2.17367 10.9134,2 12,2 C13.0866,2 14.1346,2.17367 15.1167,2.49554 C18.1333,3.4842 20.5158,5.86668 21.5045,8.88329 C21.8263,9.86536 22,10.9134 22,12 C22,13.0866 21.8263,14.1346 21.5045,15.1167 C20.5158,18.1333 18.1333,20.5158 15.1167,21.5045 C14.1346,21.8263 13.0866,22 12,22 C10.9134,22 9.86536,21.8263 8.88329,21.5045 C5.86668,20.5158 3.4842,18.1333 2.49554,15.1167 C2.17367,14.1346 2,13.0866 2,12 C2,10.9134 2.17367,9.86536 2.49554,8.88329 C3.4842,5.86668 5.86668,3.4842 8.88329,2.49554 Z"/></g></svg>

<svg xmlns="http://www.w3.org/2000/svg" width="24" height="24"><g fill="none" fill-rule="evenodd"><path d="M24 0v24H0V0zM12.594 23.258l-.012.002-.071.035-.02.004-.014-.004-.071-.036c-.01-.003-.019 0-.024.006l-.004.01-.017.428.005.02.01.013.104.074.015.004.012-.004.104-.074.012-.016.004-.017-.017-.427c-.002-.01-.009-.017-.016-.018m.264-.113-.014.002-.184.093-.01.01-.003.011.018.43.005.012.008.008.201.092c.012.004.023 0 .029-.008l.004-.014-.034-.614c-.003-.012-.01-.02-.02-.022m-.715.002a.023.023 0 0 0-.027.006l-.006.014-.034.614c0 .012.007.02.017.024l.015-.002.201-.093.01-.008.003-.011.018-.43-.003-.012-.01-.01z"/><path fill="#09244B" d="M9.986 4.255c-.25.835-.463 1.79-.626 2.84a36.493 36.493 0 0 1 5.28 0 21.29 21.29 0 0 0-.626-2.84A8.016 8.016 0 0 0 12 4c-.697 0-1.371.089-2.014.255m6.352 1.022c.138.642.257 1.321.354 2.03.71.098 1.39.217 2.031.355a8.048 8.048 0 0 0-2.385-2.385m3.407 4.709c-.835-.25-1.79-.463-2.84-.626a36.504 36.504 0 0 1 0 5.28 21.292 21.292 0 0 0 2.84-.626A8.015 8.015 0 0 0 20 12c0-.697-.089-1.371-.255-2.014m-1.022 6.352a27.07 27.07 0 0 1-2.03.354 27.07 27.07 0 0 1-.355 2.031 8.048 8.048 0 0 0 2.385-2.385m-4.709 3.407c.25-.835.463-1.79.626-2.84a36.502 36.502 0 0 1-5.28 0c.163 1.05.375 2.005.626 2.84A8.015 8.015 0 0 0 12 20c.697 0 1.371-.089 2.014-.255m-6.352-1.022a27.044 27.044 0 0 1-.354-2.03 27.07 27.07 0 0 1-2.031-.355 8.048 8.048 0 0 0 2.385 2.385m-3.407-4.709c.835.25 1.79.463 2.84.626a36.49 36.49 0 0 1 0-5.28 21.302 21.302 0 0 0-2.84.626A8.015 8.015 0 0 0 4 12c0 .697.089 1.371.255 2.014m1.022-6.352a27.045 27.045 0 0 1 2.03-.354c.098-.71.217-1.39.355-2.031a8.048 8.048 0 0 0-2.385 2.385M9.119 9.12A34.21 34.21 0 0 0 9 12c0 .998.042 1.963.12 2.88.917.078 1.882.12 2.88.12s1.963-.042 2.88-.12c.078-.917.12-1.882.12-2.88s-.042-1.963-.12-2.88A34.207 34.207 0 0 0 12 9c-.998 0-1.963.042-2.88.12m-.236-6.623A9.992 9.992 0 0 1 12 2c1.087 0 2.135.174 3.117.496 3.016.988 5.399 3.37 6.387 6.387.322.982.496 2.03.496 3.117a9.994 9.994 0 0 1-.495 3.117 10.023 10.023 0 0 1-6.388 6.387A9.994 9.994 0 0 1 12 22a9.994 9.994 0 0 1-3.117-.495 10.023 10.023 0 0 1-6.387-6.388A9.992 9.992 0 0 1 2 12c0-1.087.174-2.135.496-3.117a10.023 10.023 0 0 1 6.387-6.387"/></g></svg>
